X: 1174
T: Slieve Russell
B: ralph
B: to learn
M:6/8
L:1/8
R: Jig
Q: 3/8=100
K:G
V:1 
"Am"eAA Bcd|eaf "G"ged|"Am"edB cBA|"G"BAG Bcd|
"Am"eAA Bcd|eaf ged|"Em"edB "Am"cBA|"G"BAG "Am"A3:|
|:"Am"eaa efg|"D"agf "G"ged|"Am"eaa efg|"D"fed "G"g2e|
"Am"a2a efg|"D"agf "G"ged|"Em"edB "Am"cBA|"G"BAG "Am"A3:||
% abcbook-tune_id 63443f2e26748cf80cc39ab6


% abcbook-boost 0
% abcbook-tablature 
% abcbook-transpose 
% abcbook-lastupdated 1665989023123
% abcbook-soundfonts 
% abcbook-repeats 3
% Rhythm Jig
% Titles One title
% Transcriptions Only 1 transcription
% Movement Has lots of stepwise movement
% Movement Has some stepwise movement
% Mode major
% Key G
% Time_signature 6/8
% Has_accompaniment_chords Has chords

